X:1
T:Марш деревянных солдатиков
T:Из "Детского альбома", op. 39, № 5
T:П.И. Чайковский
%%score { 1 | 2 }
L:1/8
Q:1/4=112
M:2/4
K:D
V:1 treble nm="Piano"
V:2 treble 
V:1
!pp!"^Moderato" !2!!5![Ad] z d z | (!>!!3!B>!2!^A B)z/(!3!c/ | [=Ad]) z d z | %3
 (!>!!3!B>!2!^A !1!B)z/(c/ | [=Ad]) z !2!!3![ce] z | !4!f z !2!!4![df] z | %6
 !3!!5![eg]z/(!1!!4![df]/ !2!!3![ce])z/(!1!!3![Bd]/ | [ce]) z z2 | [Ad] z d z | (!>!B>^A B)z/(c/ | %10
 [=Ad]) z d z | (!>!!3!B>^A B)z/(c/ | [Ad]) z [ce] z | f z !1!!4![df] z | %14
 !2!!3![ce]z/(!2!!4![Bd]/ [Ac]) z/ (!2!!4![^GB]/ | !1!A) z z2 |!p! [EA] z A z | %17
 (!>!!4!_B>A _B)z/^G/ | A z A z | (!>!!4!_B>A B)z/(!2!^G/ | !1!A) z !3!=B z | %21
 !2!!4![^Gc] z !1!!3![Ac] z | !2!!4![Bd]z/(!3!c/ B)z/(A/ | ^G) z z2 | [EA] z A z | %25
 (!>!_B>A _B)z/(^G/ | A) z A z | (!>!_B>A _B)z/(^G/ | A) z =B z | [^Gc] z [Ac] z | %30
 [Bd]z/(c/ B)z/(c/ | A) z z2 |!pp! [Ad] z d z | (!>!B>^A B)z/(c/ | [=Ad]) z d z | %35
 (!>!B>^A B)z/(c/ | [=Ad]) z [ce] z | f z [df] z | [eg]z/([df]/ [ce])z/([Bd]/ | [ce]) z z2 | %40
 [Ad] z d z | (!>!B>^A B)z/(c/ | [=Ad]) z d z | (!>!B>^A B)z/(c/ | [Ad]) z [ce] z | %45
 f z !1!!4![df] z | !3!cz/(^d/ e) z/ (f/ | =d) z !fermata!z2 |] %48
V:2
 !4!!2![DF] z z2 | (!>!!5!!2![DG]>F G) z/ (!3!E/ | [DF]) z z2 | (!>![DG]>F G) z/ (E/ | %4
 [DF]) z !2!A z | d z z2 | [DA] z z2 | A.!3!A/.!2!A/ .!1!A.!2!A | !3![DF] z z2 | %9
 (!>![DG]>F G) z/ (E/ | [DF]) z z2 | (!>![DG]>F G) z/ (E/ | [DF]) z A z | d z D z | E4 | %15
 .A,.!4!A,/.!3!A,/ .!2!A,.!3!A, | !4!!2![A,C] z z2 | !>![A,D=F]4 | [A,CE] z z2 | !>![A,D=F]4 | %20
 [A,CE] z !2!!1![E^G] z | !4!!1![C^E] z !2!F z | !5!!2![B,F] z z2 | !1!Ez/(!2!D/ !3!C)z/(!3!B,/ | %24
 [A,C]) z z2 | !>![A,D=F]4 | [A,CE] z z2 | !>![A,D=F]4 | [A,CE] z [E^G] z | [C^E] z F z | %30
 !5!!2![B,F] z !3!!1![=E^G] z | !5!A,z/(!3!A,/ !2!B,)z/(!4!C/ | [DF]) z z2 | (!>![DG]>F G) z/ (E/ | %34
 [DF]) z z2 | (!>![DG]>F G) z/ (E/ | [DF]) z A z | d z z2 | [DA] z z2 | .A.A/.A/ .A.A | [DF] z z2 | %41
 (!>![DG]>F G) z/ (E/ | [DF]) z z2 | (!>![DG]>F G)z/(E/ | [DF]) z A z | d z !2!B z | %46
 !1!!4![GB] z !2!!3![Ac] z | D z !fermata!z2 |] %48

